Obsidian-SemiLight/actions/24s/tools-rip-audio-cd.svg

<svg viewBox="0 0 24 24" xmlns="http://www.w3.org/2000/svg"><path d="m12 4c-4.432 0-8 3.568-8 8s3.568 8 8 8v-1c-3.878 0-7-3.122-7-7s3.122-7 7-7 7 3.122 7 7h1c0-4.432-3.568-8-8-8zm0 2c-3.324 0-6 2.676-6 6h3c0-1.662 1.338-3 3-3zm0 4c-1.108 0-2 .892-2 2s.892 2 2 2v-1c-.554 0-1-.446-1-1s.446-1 1-1 1 .446 1 1h1c0-1.108-.892-2-2-2zm4 1v5.277344c-.295065-.171201-.632953-.277344-1-.277344-1.108 0-2 .892-2 2s.892 2 2 2 2-.892 2-2v-5-1h1l-1-1z" fill="#4d4d4d"/></svg>

<svg xmlns="http://www.w3.org/2000/svg" viewBox="0 0 24 24">
  <defs id="defs3051">
    <style type="text/css" id="current-color-scheme">
      .ColorScheme-Text {
        color:#4d4d4d;
      }
      </style>
  </defs>
 <path style="fill:currentColor;fill-opacity:1;stroke:none" 
     d="M 12 4 C 7.568 4 4 7.568 4 12 C 4 16.432 7.568 20 12 20 L 12 19 C 8.122 19 5 15.878 5 12 C 5 8.122 8.122 5 12 5 C 15.878 5 19 8.122 19 12 L 20 12 C 20 7.568 16.432 4 12 4 z M 12 6 C 8.676 6 6 8.676 6 12 L 9 12 C 9 10.338 10.338 9 12 9 L 12 6 z M 12 10 C 10.892 10 10 10.892 10 12 C 10 13.108 10.892 14 12 14 L 12 13 C 11.446 13 11 12.554 11 12 C 11 11.446 11.446 11 12 11 C 12.554 11 13 11.446 13 12 L 14 12 C 14 10.892 13.108 10 12 10 z M 16 11 L 16 16.277344 C 15.704935 16.106143 15.367047 16 15 16 C 13.892 16 13 16.892 13 18 C 13 19.108 13.892 20 15 20 C 16.108 20 17 19.108 17 18 L 17 13 L 17 12 L 18 12 L 17 11 L 16 11 z "
     class="ColorScheme-Text"
     />
</svg>
